X: 9139
T: Dairy Maid, The
R: reel
M: 4/4
K: Dmajor
|AF F2 AFBF|AFDE FE E2|AF F2 BFAF|EFDE FDD2|
AF F2 AFBF|AFDE FE E2|G3E F2AF|EFDE FD D2||
d3f a3g|f2ef dBBA|dcdf a2fa|bgeg fddA|
dfaf g2ag|f2eg fBBA|dcdf g2ag|fgeg fddB||

